icons/plangrid.svg

<svg xmlns="http://www.w3.org/2000/svg" width="16" height="16" viewBox="0 0 16 16">
  <g fill="none" fill-rule="evenodd">
    <path fill="#0085DE" d="M11.0666072,0 C12.799696,0 13.9068011,0.00607978253 14.9515882,1.05086703 C15.9933356,2.09261438 16,3.1948088 16,4.93339276 L16,11.0667242 C16,12.7998129 15.9932187,13.9075026 14.9491329,14.9515882 C13.9071518,15.9935694 12.8051912,16 11.0666072,16 L4.93327585,16 C3.20030399,16 2.09319898,15.9939202 1.04841173,14.9491329 C0.00678129589,13.9075026 0,12.8053081 0,11.0667242 L0,4.93339276 C0,3.20018707 0.00654745811,2.09273129 1.05086703,1.04841173 C2.09261438,0.00678129589 3.1948088,0 4.93327585,0 L11.0666072,0 Z M13.999404,7.43401623 C13.7144323,4.38607901 11.1223298,2.00059599 8,2.00059599 C4.68700912,2.00059599 2.00059599,4.68652917 2.00059599,8 C2.00059599,11.1997221 4.50174752,13.8231415 7.65719405,13.999404 L12.4144815,13.999404 C13.2864348,13.999404 13.999404,13.2864348 13.999404,12.4144815 L13.999404,7.43401623 Z M12.4763953,13.1596074 C12.0990328,13.1596074 11.7933032,12.8538778 11.7933032,12.4766353 C11.7933032,12.0991528 12.0990328,11.7933032 12.4763953,11.7933032 C12.8541178,11.7933032 13.1594874,12.0991528 13.1594874,12.4766353 C13.1594874,12.8538778 12.8541178,13.1596074 12.4763953,13.1596074 Z M7.99988001,12.6332197 C5.4452138,12.6332197 3.36678027,10.5545462 3.36678027,8 C3.36678027,5.44509381 5.4452138,3.36678027 7.99988001,3.36678027 C10.5546662,3.36678027 12.6332197,5.44509381 12.6332197,8 C12.6332197,10.5545462 10.5546662,12.6332197 7.99988001,12.6332197 Z"/>
  </g>
</svg>

<svg xmlns="http://www.w3.org/2000/svg" width="16" height="16" viewBox="0 0 16 16"><path d="M11.067 0c1.733 0 2.84.006 3.885 1.05C15.993 2.094 16 3.196 16 4.934v6.134c0 1.733-.007 2.84-1.05 3.885C13.906 15.994 12.804 16 11.066 16H4.933c-1.733 0-2.84-.006-3.885-1.05C.007 13.907 0 12.804 0 11.066V4.933C0 3.2.007 2.093 1.05 1.048 2.094.007 3.196 0 4.934 0h6.134zm2.932 7.434C13.714 4.386 11.122 2.001 8 2.001A6 6 0 0 0 2 8c0 3.2 2.502 5.823 5.657 6h4.757A1.59 1.59 0 0 0 14 12.413v-4.98zm-1.523 5.726a.683.683 0 1 1 0-1.366.683.683 0 0 1 0 1.366zM8 12.633A4.639 4.639 0 0 1 3.367 8 4.638 4.638 0 0 1 8 3.367 4.638 4.638 0 0 1 12.633 8 4.639 4.639 0 0 1 8 12.633z"/></svg>
